client/resources/iconsets/breeze/src/svg/16x16/icon_pin_outline.svg

<svg xmlns="http://www.w3.org/2000/svg" width="16" height="16" viewBox="0 0 16 16">
 <path style="fill:#cac8c8"
       d="M 10,1 9,2 9,3 5,7 3,6 2,7 5.1464844,10.146484 1.1523438,14.140625 c -0.4908332,0.471254 0.235777,1.197864 0.7070312,0.707031 L 5.8535156,10.853516 9,14 10,13 9,11 13,7 14,7 15,6 Z M 10,2.4140625 13.585938,6 13,6 c -0.265199,5.11e-5 -0.519519,0.1054326 -0.707031,0.2929688 L 8.2929688,10.292969 c -0.3043813,0.304329 -0.379905,0.769272 -0.1875,1.154297 L 8.3496094,11.935547 4.0644531,7.6503906 4.5527344,7.8945312 c 0.385025,0.1924049 0.8499681,0.1168812 1.1542968,-0.1875 l 4,-4 C 9.8945675,3.5195195 9.9999489,3.265199 10,3 Z"
       />
</svg>

<svg xmlns="http://www.w3.org/2000/svg" width="16" height="16"><path d="M10 1L9 2v1L5 7 3 6 2 7l3.146 3.146-3.994 3.994c-.491.471.236 1.198.707.707l3.994-3.994L9 14l1-1-1-2 4-4h1l1-1zm0 1.414L13.586 6H13a1 1 0 0 0-.707.293l-4 4a1 1 0 0 0-.187 1.154l.244.488L4.064 7.65l.488.244a1 1 0 0 0 1.154-.187l4-4A1 1 0 0 0 10 3z" fill="#cac8c8"/></svg>
